X:1
T:Tripoli, 87.87.87
T:Tripoli, 87.87.87
T:Zimri Mullen Parvin, 1872
T:Public Domain Courtesy of the Cyber Hymnal™
C:Zimri Mullen Parvin, 1872
Z:Public Domain
Z:Courtesy of the Cyber Hymnal™
%%score ( 1 2 ) ( 3 4 )
L:1/8
Q:1/4=110
M:4/4
K:C
V:1 treble 
V:2 treble 
V:3 bass 
V:4 bass 
V:1
 [EG]3 [DF] [CE]2 [Ec]2 | [FA]2 [Fc]2 [EG]2 [CE]2 | [B,D]3 [CE] [DF]2 [FA]2 | [EG]2 [CE]2 [B,D]4 | %4
 [CE]3 [DF] [EG]2 [Ec]2 | [FA]2 [Fc]2 ([EG][DF]) [CE]2 | [CG]2 [Ec]2 [FA]2 [Ad]2 | %7
 [Gc]2 [FB]2 [Ec]4 | [Ec]2 [EG]2 [FA]2 [Fc]2 | [^Fd]2 [Fc]2 (BA) G2 | G2 [Gc]2 [FA]2 [Fd]2 | %11
 [Ec]2 [DB]2 [Ec]4 |] %12
V:2
 x8 | x8 | x8 | x8 | x8 | x8 | x8 | x8 | x8 | x4 G2 G2 | G2 x6 | x8 |] %12
V:3
 [C,C]3 [C,G,] [C,G,]2 [C,C]2 | [F,C]2 [F,A,]2 [C,C]2 [C,G,]2 | G,3 G, G,2 [G,B,]2 | %3
 [G,C]2 G,2 G,4 | [C,G,]3 [C,G,] [C,C]2 [C,C]2 | [F,C]2 [F,A,]2 [C,C]2 [C,G,]2 | %6
 [E,C]2 [C,C]2 [F,C]2 [D,F]2 | [G,E]2 [G,,D]2 [C,C]4 | [C,C]2 [C,C]2 [F,C]2 [F,A,]2 | %9
 [D,A,]2 [D,D]2 (DC) [G,B,]2 | [E,C]2 [E,C]2 [F,C]2 [F,A,]2 | G,2 [G,,G,]2 [C,G,]4 |] %12
V:4
 x8 | x8 | G,3 G, G,2 x2 | x2 G,2 G,4 | x8 | x8 | x8 | x8 | x8 | x4 G,2 x2 | x8 | G,2 x6 |] %12

